public/images/ademe/passager.svg

<svg width="19" height="24" viewBox="0 0 19 24" fill="none" xmlns="http://www.w3.org/2000/svg">
<g clip-path="url(#clip0_859_1715)">
<path d="M17.5981 23.1431L16.6891 16.5689C16.6891 14.276 14.9701 12.2703 13.0711 11.1346C14.5336 10.0931 15.4831 8.43885 15.4831 6.56599C15.4831 3.41599 12.8011 0.857422 9.49355 0.857422C6.18605 0.857422 3.50855 3.41171 3.50855 6.56599C3.50855 8.43885 4.45805 10.0974 5.92055 11.1346C4.02155 12.2703 2.30255 14.276 2.30255 16.5689L1.39355 23.1431" fill="#AFE0DD"/>
<path d="M17.5984 24C17.1529 24 16.7659 23.6871 16.7074 23.2543L15.7984 16.68C15.7939 16.6414 15.7894 16.6071 15.7894 16.5686C15.7894 14.5071 14.1379 12.7843 12.5944 11.8586C12.3424 11.7086 12.1849 11.4514 12.1759 11.1686C12.1624 10.8857 12.2974 10.6157 12.5359 10.4486C13.8409 9.51857 14.5879 8.10429 14.5879 6.56571C14.5879 3.89143 12.3064 1.71429 9.49843 1.71429C6.69043 1.71429 4.40893 3.89143 4.40893 6.56571C4.40893 8.10429 5.15593 9.52286 6.46093 10.4486C6.69943 10.6157 6.83443 10.8857 6.82093 11.1686C6.80743 11.4514 6.64993 11.7086 6.40243 11.8586C4.85893 12.7843 3.20743 14.5071 3.20743 16.5686C3.20743 16.6071 3.20743 16.6414 3.19843 16.68L2.28943 23.2543C2.22643 23.7257 1.77193 24.0557 1.28143 23.9914C0.786427 23.9314 0.439927 23.4986 0.507427 23.0314L1.40743 16.5129C1.42993 14.2286 2.88343 12.3086 4.48993 11.0657C3.28393 9.85714 2.61343 8.26714 2.61343 6.56571C2.60893 2.94429 5.70043 0 9.49843 0C13.2964 0 16.3879 2.94429 16.3879 6.56571C16.3879 8.26714 15.7129 9.85714 14.5114 11.0657C16.1179 12.3129 17.5669 14.2286 17.5939 16.5129L18.4939 23.0314C18.5569 23.4986 18.2104 23.9314 17.7199 23.9914C17.6794 23.9957 17.6389 24 17.6029 24H17.5984Z" fill="#003332"/>
</g>
<defs>
<clipPath id="clip0_859_1715">
<rect width="18.0023" height="24" fill="white" transform="translate(0.499023)"/>
</clipPath>
</defs>
</svg>

<svg xmlns="http://www.w3.org/2000/svg" width="19" height="24" fill="none"><g clip-path="url(#a)"><path fill="#AFE0DD" d="m17.598 23.143-.909-6.574c0-2.293-1.719-4.299-3.618-5.434 1.463-1.042 2.412-2.696 2.412-4.569 0-3.15-2.682-5.709-5.99-5.709-3.307 0-5.984 2.555-5.984 5.709 0 1.873.95 3.531 2.412 4.569-1.9 1.135-3.618 3.141-3.618 5.434l-.91 6.574"/><path fill="#003332" d="M17.598 24c-.445 0-.832-.313-.89-.746l-.91-6.574c-.004-.039-.009-.073-.009-.111 0-2.062-1.651-3.785-3.195-4.71a.836.836 0 0 1-.058-1.41c1.305-.93 2.052-2.345 2.052-3.883 0-2.675-2.282-4.852-5.09-4.852s-5.09 2.177-5.09 4.852c0 1.538.748 2.957 2.053 3.883a.83.83 0 0 1-.059 1.41c-1.543.925-3.195 2.648-3.195 4.71 0 .038 0 .072-.009.111l-.909 6.574c-.063.472-.517.802-1.008.737-.495-.06-.841-.492-.774-.96l.9-6.518c.023-2.284 1.476-4.204 3.083-5.447a6.33 6.33 0 0 1-1.877-4.5C2.61 2.944 5.7 0 9.498 0s6.89 2.944 6.89 6.566c0 1.701-.675 3.291-1.877 4.5 1.607 1.247 3.056 3.163 3.083 5.447l.9 6.518c.063.468-.284.9-.774.96q-.061.008-.117.009z"/></g><defs><clipPath id="a"><path fill="#fff" d="M.499 0h18.002v24H.499z"/></clipPath></defs></svg>
